;FLAVOR:Marlin
;TIME:1601
;Filament used: 1.3658m
;Layer height: 0.22
;MINX:-14.2
;MINY:-22.835
;MINZ:0.3
;MAXX:14.2
;MAXY:22.832
;MAXZ:11.96
;TARGET_MACHINE.NAME:Unknown
;Generated with Cura_SteamEngine 5.12.0
M140 S60
M105
M190 S60
M104 S215
M105
M109 S215
G28 ;Home
G1 Z15.0 F6000 ;Move the platform down 15mm
;Prime the extruder
G92 E0
G1 F200 E3
G92 E0
M82 ;absolute extrusion mode
G92 E0
G92 E0
G1 F2700 E-5
;LAYER_COUNT:54
;LAYER:0
M107
G0 F4500 X-2.651 Y13.4 Z0.3
;TYPE:SKIRT
G1 F2700 E0.02661
G1 F1500 X-5.029 Y13.4 E0.14525
G1 X-4.675 Y13.484 E0.1634
G1 X-4.302 Y13.713 E0.18523
G1 X-3.84 Y14.201 E0.21876
G1 X-3.378 Y13.713 E0.25229
G1 X-3.005 Y13.484 E0.27412
G1 X-2.651 Y13.4 E0.29228
G1 F2700 E-4.70772
G0 F4500 X3.715 Y14.2
G1 F2700 E0.31888
G1 F1500 X3.929 Y14.426 E0.33441
G1 X4.258 Y15.003 E0.36755
G1 X4.812 Y16.9 E0.46614
G1 X4.861 Y17.65 E0.50364
G1 X4.264 Y19.781 E0.61405
G1 X3.951 Y20.354 E0.64662
G1 X2.428 Y21.877 E0.75408
G1 X1.873 Y22.22 E0.78663
G1 X-.167 Y22.792 E0.89233
G1 X-.922 Y22.832 E0.93005
G1 X-2.979 Y22.231 E1.03697
G1 X-3.537 Y21.901 E1.06931
G1 X-3.804 Y21.653 E1.08749
G1 X-4.093 Y21.922 E1.10719
G1 X-4.62 Y22.23 E1.13764
G1 X-6.621 Y22.792 E1.24133
G1 X-7.376 Y22.832 E1.27905
G1 X-9.433 Y22.231 E1.38597
G1 X-10.037 Y21.873 E1.421
G1 X-11.579 Y20.332 E1.52976
G1 X-11.936 Y19.728 E1.56476
G1 X-12.492 Y17.824 E1.66372
G1 X-12.538 Y17.057 E1.70205
G1 X-11.903 Y14.882 E1.8151
G1 X-11.579 Y14.394 E1.84432
G1 X-11.213 Y14.008 E1.87086
G1 X-11.501 Y13.92 E1.88588
G1 X-12.489 Y13.417 E1.94119
G1 X-13.419 Y12.487 E2.00681
G1 X-14.026 Y11.297 E2.07346
G1 X-14.192 Y10.166 E2.13049
G1 X-14.2 Y-10.494 E3.16122
G1 X-13.937 Y-11.472 E3.21175
G1 X-13.42 Y-12.486 E3.26853
G1 X-12.487 Y-13.419 E3.33436
G1 X-11.297 Y-14.026 E3.40101
G1 X-10.166 Y-14.192 E3.45804
G1 X-5.342 Y-14.199 E3.69871
G1 X-5.562 Y-14.438 E3.71491
G1 X-5.892 Y-14.996 E3.74726
G1 X-6.448 Y-16.9 E3.84621
G1 X-6.494 Y-17.667 E3.88455
G1 X-5.859 Y-19.842 E3.99759
G1 X-5.535 Y-20.33 E4.02681
G1 X-4.145 Y-21.799 E4.12771
G1 X-3.543 Y-22.21 E4.16408
G1 X-1.468 Y-22.792 E4.27159
G1 X-.73 Y-22.835 E4.30848
G1 X1.497 Y-22.21 E4.42387
G1 X2.099 Y-21.799 E4.46024
G1 X3.519 Y-20.298 E4.56333
G1 X3.848 Y-19.721 E4.59646
G1 X4.402 Y-17.824 E4.69506
G1 X4.451 Y-17.074 E4.73255
G1 X3.854 Y-14.943 E4.84296
G1 X3.569 Y-14.421 E4.87264
G1 X3.371 Y-14.2 E4.88744
G1 X10.494 Y-14.2 E5.24281
G1 X11.472 Y-13.937 E5.29333
G1 X12.486 Y-13.42 E5.35012
G1 X13.419 Y-12.487 E5.41595
G1 X14.026 Y-11.297 E5.48259
G1 X14.192 Y-10.166 E5.53962
G1 X14.2 Y10.494 E6.57035
G1 X13.937 Y11.472 E6.62088
G1 X13.42 Y12.486 E6.67767
G1 X12.62 Y13.286 E6.73411
G1 X11.875 Y13.784 E6.77882
G1 X10.589 Y14.2 E6.84625
G1 X3.715 Y14.2 E7.18919
G0 F4500 X3.608 Y14.669
G1 F1500 X3.887 Y15.158 E7.21728
G1 X4.416 Y16.971 E7.31151
G1 X4.458 Y17.608 E7.34335
G1 X3.892 Y19.628 E7.44801
G1 X3.628 Y20.111 E7.47548
G1 X2.178 Y21.561 E7.57778
G1 X1.71 Y21.851 E7.60525
G1 X-.234 Y22.395 E7.70596
G1 X-.874 Y22.429 E7.73794
G1 X-2.821 Y21.86 E7.83914
G1 X-3.334 Y21.557 E7.86886
G1 X-3.804 Y21.087 E7.90202
G1 X-4.295 Y21.577 E7.93663
G1 X-4.777 Y21.859 E7.96449
G1 X-6.688 Y22.395 E8.06351
G1 X-7.328 Y22.429 E8.09548
G1 X-9.275 Y21.86 E8.19668
G1 X-9.788 Y21.557 E8.22641
G1 X-11.262 Y20.083 E8.33041
G1 X-11.565 Y19.57 E8.36013
G1 X-12.096 Y17.754 E8.45452
G1 X-12.135 Y17.103 E8.48706
G1 X-11.536 Y15.052 E8.59366
G1 X-11.288 Y14.669 E8.61642
G1 X-10.463 Y13.797 E8.67631
G1 X-11.32 Y13.564 E8.72062
G1 X-12.249 Y13.091 E8.77263
G1 X-13.092 Y12.248 E8.83211
G1 X-13.639 Y11.175 E8.8922
G1 X-13.796 Y10.108 E8.946
G1 X-13.8 Y-10.442 E9.97125
G1 X-13.562 Y-11.327 E10.01697
G1 X-13.093 Y-12.247 E10.06849
G1 X-12.248 Y-13.092 E10.12811
G1 X-11.175 Y-13.639 E10.18819
G1 X-10.108 Y-13.796 E10.242
G1 X-4.377 Y-13.8 E10.52792
G1 X-5.218 Y-14.641 E10.58726
G1 X-5.521 Y-15.154 E10.61698
G1 X-6.052 Y-16.97 E10.71138
G1 X-6.091 Y-17.621 E10.74391
G1 X-5.492 Y-19.672 E10.85051
G1 X-5.244 Y-20.055 E10.87328
G1 X-3.882 Y-21.494 E10.97213
G1 X-3.371 Y-21.843 E11.003
G1 X-1.401 Y-22.396 E11.10508
G1 X-.774 Y-22.432 E11.13641
G1 X1.325 Y-21.843 E11.24518
G1 X1.836 Y-21.494 E11.27605
G1 X3.198 Y-20.055 E11.3749
G1 X3.477 Y-19.566 E11.40299
G1 X4.006 Y-17.753 E11.49721
G1 X4.048 Y-17.116 E11.52906
G1 X3.482 Y-15.096 E11.63372
G1 X3.218 Y-14.613 E11.66118
G1 X2.405 Y-13.8 E11.71854
G1 X10.442 Y-13.8 E12.11951
G1 X11.327 Y-13.562 E12.16523
G1 X12.247 Y-13.093 E12.21675
G1 X13.092 Y-12.248 E12.27637
G1 X13.639 Y-11.175 E12.33646
G1 X13.796 Y-10.108 E12.39026
G1 X13.8 Y10.442 E13.41551
G1 X13.562 Y11.327 E13.46123
G1 X13.093 Y12.247 E13.51275
G1 X12.365 Y12.975 E13.56411
G1 X11.699 Y13.42 E13.60407
G1 X10.525 Y13.8 E13.66564
G1 X2.786 Y13.8 E14.05174
G1 X3.608 Y14.669 E14.11141
G0 F4500 X3.317 Y14.944
G1 F1500 X3.503 Y15.27 E14.13014
G1 X4.032 Y17.083 E14.22436
G1 X4.054 Y17.567 E14.24853
G1 X3.507 Y19.52 E14.34972
G1 X3.345 Y19.828 E14.36708
G1 X1.895 Y21.278 E14.46939
G1 X1.602 Y21.466 E14.48675
G1 X-.342 Y22.01 E14.58747
G1 X-.828 Y22.026 E14.61173
G1 X-2.709 Y21.476 E14.7095
G1 X-3.051 Y21.274 E14.72932
G1 X-3.803 Y20.522 E14.78237
G1 X-4.577 Y21.294 E14.83691
G1 X-4.885 Y21.474 E14.85471
G1 X-6.796 Y22.01 E14.95373
G1 X-7.282 Y22.026 E14.97799
G1 X-9.163 Y21.476 E15.07576
G1 X-9.505 Y21.274 E15.09558
G1 X-10.979 Y19.8 E15.19958
G1 X-11.181 Y19.458 E15.21939
G1 X-11.712 Y17.642 E15.31379
G1 X-11.731 Y17.148 E15.33845
G1 X-11.168 Y15.22 E15.43866
G1 X-10.997 Y14.944 E15.45486
G1 X-9.832 Y13.713 E15.53941
G1 X-9.459 Y13.484 E15.56125
G1 X-9.105 Y13.4 E15.5794
G1 X-10.4 Y13.4 E15.64401
G1 X-11.178 Y13.188 E15.68424
G1 X-12.009 Y12.765 E15.73076
G1 X-12.765 Y12.009 E15.7841
G1 X-13.252 Y11.053 E15.83763
G1 X-13.4 Y10.05 E15.88821
G1 X-13.4 Y-10.39 E16.90796
G1 X-13.187 Y-11.182 E16.94888
G1 X-12.766 Y-12.008 E16.99513
G1 X-12.009 Y-12.765 E17.04855
G1 X-11.053 Y-13.252 E17.10207
G1 X-10.05 Y-13.4 E17.15265
G1 X-2.997 Y-13.4 E17.50453
G1 X-3.34 Y-13.479 E17.52209
G1 X-3.704 Y-13.693 E17.54316
G1 X-4.935 Y-14.924 E17.63001
G1 X-5.137 Y-15.266 E17.64983
G1 X-5.668 Y-17.082 E17.74422
G1 X-5.687 Y-17.576 E17.76888
G1 X-5.124 Y-19.504 E17.86909
G1 X-4.953 Y-19.78 E17.88529
G1 X-3.591 Y-21.219 E17.98414
G1 X-3.2 Y-21.476 E18.00748
G1 X-1.293 Y-22.011 E18.1063
G1 X-.817 Y-22.029 E18.13006
G1 X1.154 Y-21.476 E18.23219
G1 X1.545 Y-21.219 E18.25553
G1 X2.907 Y-19.78 E18.35438
G1 X3.093 Y-19.454 E18.37311
G1 X3.622 Y-17.641 E18.46733
G1 X3.644 Y-17.157 E18.4915
G1 X3.097 Y-15.204 E18.59269
G1 X2.935 Y-14.896 E18.61005
G1 X1.732 Y-13.693 E18.69493
G1 X1.368 Y-13.479 E18.716
G1 X1.025 Y-13.4 E18.73356
G1 X10.39 Y-13.4 E19.20078
G1 X11.182 Y-13.187 E19.24169
G1 X12.008 Y-12.766 E19.28795
G1 X12.765 Y-12.009 E19.34136
G1 X13.252 Y-11.053 E19.39489
G1 X13.4 Y-10.05 E19.44547
G1 X13.4 Y10.39 E20.46522
G1 X13.187 Y11.182 E20.50614
G1 X12.766 Y12.008 E20.55239
G1 X12.11 Y12.664 E20.59868
G1 X11.523 Y13.056 E20.63389
G1 X10.461 Y13.4 E20.68959
G1 X1.425 Y13.4 E21.14039
G1 X1.779 Y13.484 E21.15855
G1 X2.152 Y13.713 E21.18038
G1 X3.317 Y14.944 E21.26494
G0 F4500 X2.735 Y15.494
G1 F1500 X3.264 Y17.307 E21.35916
G1 X3.265 Y17.417 E21.36465
G1 X2.737 Y19.304 E21.46241
G1 X1.329 Y20.712 E21.56175
G1 X-.558 Y21.24 E21.65951
G1 X-.668 Y21.239 E21.665
G1 X-2.485 Y20.708 E21.75944
G1 X-3.803 Y19.39 E21.85243
G1 X-5.125 Y20.712 E21.94571
G1 X-7.012 Y21.24 E22.04347
G1 X-7.122 Y21.239 E22.04895
G1 X-8.939 Y20.708 E22.1434
G1 X-10.413 Y19.234 E22.24739
G1 X-10.944 Y17.418 E22.34179
G1 X-10.944 Y17.306 E22.34738
G1 X-10.415 Y15.494 E22.44155
G1 X-9.25 Y14.263 E22.52611
G1 X-9.105 Y14.2 E22.534
G1 X-5.029 Y14.2 E22.73735
G1 X-4.884 Y14.263 E22.74524
G1 X-3.84 Y15.366 E22.82101
G1 X-2.796 Y14.263 E22.89678
G1 X-2.651 Y14.2 E22.90466
G1 X1.425 Y14.2 E23.10802
G1 X1.57 Y14.263 E23.1159
G1 X2.735 Y15.494 E23.20046
G0 F4500 X3.119 Y15.382
G1 F1500 X3.648 Y17.195 E23.29468
G1 X3.669 Y17.459 E23.3079
G1 X3.122 Y19.412 E23.40908
G1 X3.02 Y19.587 E23.41919
G1 X1.612 Y20.995 E23.51853
G1 X1.437 Y21.097 E23.52863
G1 X-.45 Y21.625 E23.62639
G1 X-.716 Y21.642 E23.63969
G1 X-2.597 Y21.092 E23.73746
G1 X-2.768 Y20.991 E23.74737
G1 X-3.803 Y19.956 E23.8204
G1 X-4.86 Y21.011 E23.8949
G1 X-4.993 Y21.089 E23.90259
G1 X-6.904 Y21.625 E24.00161
G1 X-7.17 Y21.642 E24.01491
G1 X-9.051 Y21.092 E24.11268
G1 X-9.222 Y20.991 E24.12259
G1 X-10.696 Y19.517 E24.22659
G1 X-10.797 Y19.346 E24.2365
G1 X-11.328 Y17.53 E24.33089
G1 X-11.347 Y17.26 E24.3444
G1 X-10.799 Y15.382 E24.442
G1 X-10.706 Y15.219 E24.45136
G1 X-9.541 Y13.988 E24.53592
G1 X-9.264 Y13.833 E24.55176
G1 X-9.105 Y13.8 E24.55986
G1 X-5.029 Y13.8 E24.76321
G1 X-4.87 Y13.833 E24.77131
G1 X-4.593 Y13.988 E24.78715
G1 X-3.84 Y14.784 E24.84181
G1 X-3.087 Y13.988 E24.89648
G1 X-2.81 Y13.833 E24.91232
G1 X-2.651 Y13.8 E24.92042
G1 X1.425 Y13.8 E25.12377
G1 X1.584 Y13.833 E25.13187
G1 X1.861 Y13.988 E25.14771
G1 X3.026 Y15.219 E25.23226
G1 X3.119 Y15.382 E25.24163
G1 F2700 E20.24163
G0 F4500 X10.335 Y12.665
G0 X10.335 Y12.6
G1 F2700 E25.26824
G1 F1500 X-10.292 Y12.6 E26.29732
G1 X-10.89 Y12.437 E26.32824
G1 X-11.531 Y12.111 E26.36412
G1 X-12.111 Y11.531 E26.40504
G1 X-12.48 Y10.805 E26.44567
G1 X-12.6 Y10.05 E26.48381
G1 X-12.6 Y-10.286 E27.49838
G1 X-12.437 Y-10.89 E27.52959
G1 X-12.111 Y-11.531 E27.56547
G1 X-11.531 Y-12.111 E27.60639
G1 X-10.805 Y-12.48 E27.64702
G1 X-10.05 Y-12.6 E27.68516
G1 X10.286 Y-12.6 E28.69973
G1 X10.89 Y-12.437 E28.73094
G1 X11.531 Y-12.111 E28.76682
G1 X12.111 Y-11.531 E28.80774
G1 X12.48 Y-10.805 E28.84837
G1 X12.6 Y-10.05 E28.88651
G1 X12.6 Y10.286 E29.90108
G1 X12.437 Y10.89 E29.93229
G1 X12.111 Y11.531 E29.96817
G1 X11.6 Y12.042 E30.00422
G1 X11.169 Y12.329 E30.03006
G1 X10.335 Y12.6 E30.07381
G0 F4500 X10.397 Y13
G1 F1500 X-10.346 Y13 E31.10868
G1 X-11.036 Y12.812 E31.14436
G1 X-11.769 Y12.439 E31.18539
G1 X-12.439 Y11.769 E31.23266
G1 X-12.866 Y10.93 E31.27963
G1 X-13 Y10.05 E31.32404
G1 X-13 Y-10.338 E32.3412
G1 X-12.812 Y-11.037 E32.37731
G1 X-12.439 Y-11.769 E32.4183
G1 X-11.769 Y-12.439 E32.46557
G1 X-10.93 Y-12.866 E32.51254
G1 X-10.05 Y-13 E32.55695
G1 X10.338 Y-13 E33.57411
G1 X11.037 Y-12.812 E33.61022
G1 X11.769 Y-12.439 E33.65121
G1 X12.439 Y-11.769 E33.69848
G1 X12.866 Y-10.93 E33.74545
G1 X13 Y-10.05 E33.78986
G1 X13 Y10.338 E34.80702
G1 X12.812 Y11.037 E34.84313
G1 X12.439 Y11.769 E34.88412
G1 X11.855 Y12.353 E34.92532
G1 X11.347 Y12.692 E34.95579
G1 X10.397 Y13 E35.00562
G1 F2700 E30.00562
G0 F4500 X11.589 Y12.143
G0 X12.162 Y11.571
G0 X12.53 Y10.849
G0 X12.664 Y-10.052
G0 X12.162 Y-11.571
G0 X11.571 Y-12.162
G0 X10.849 Y-12.53
G0 X1.025 Y-14.2
G1 F2700 E35.03223
G1 F1500 X-2.997 Y-14.2 E35.23288
G1 X-3.138 Y-14.259 E35.24051
G1 X-4.369 Y-15.49 E35.32736
G1 X-4.9 Y-17.306 E35.42176
G1 X-4.9 Y-17.418 E35.42735
G1 X-4.371 Y-19.23 E35.52152
G1 X-3.009 Y-20.669 E35.62037
G1 X-2.918 Y-20.725 E35.6257
G1 X-1.077 Y-21.241 E35.72109
G1 X-.969 Y-21.241 E35.72648
G1 X0.872 Y-20.725 E35.82186
G1 X0.963 Y-20.669 E35.82719
G1 X2.325 Y-19.23 E35.92604
G1 X2.854 Y-17.417 E36.02027
G1 X2.855 Y-17.307 E36.02576
G1 X2.327 Y-15.42 E36.12351
G1 X1.166 Y-14.259 E36.20543
G1 X1.025 Y-14.2 E36.21305
G0 F4500 X1.179 Y-13.831
G1 F1500 X1.449 Y-13.976 E36.22834
G1 X2.61 Y-15.137 E36.31026
G1 X2.712 Y-15.312 E36.32037
G1 X3.259 Y-17.265 E36.42155
G1 X3.238 Y-17.529 E36.43476
G1 X2.709 Y-19.342 E36.52899
G1 X2.616 Y-19.505 E36.53835
G1 X1.254 Y-20.944 E36.6372
G1 X1.046 Y-21.091 E36.64991
G1 X-.925 Y-21.644 E36.75204
G1 X-1.185 Y-21.626 E36.76504
G1 X-3.092 Y-21.091 E36.86385
G1 X-3.3 Y-20.944 E36.87656
G1 X-4.662 Y-19.505 E36.97541
G1 X-4.755 Y-19.342 E36.98477
G1 X-5.303 Y-17.464 E37.08237
G1 X-5.284 Y-17.194 E37.09588
G1 X-4.753 Y-15.378 E37.19027
G1 X-4.652 Y-15.207 E37.20018
G1 X-3.421 Y-13.976 E37.28703
G1 X-3.151 Y-13.831 E37.30232
G1 X-2.997 Y-13.8 E37.31016
G1 X1.025 Y-13.8 E37.51082
G1 X1.179 Y-13.831 E37.51866
G1 F2700 E32.51866
G0 F4500 X0.939 Y-1.684
G1 F2700 E37.54526
G1 F1500 X1.179 Y-1.583 E37.55825
G1 X1.205 Y-1.576 E37.5596
G1 X2.073 Y-.66 E37.62256
G1 X2.4 Y0.467 E37.6811
G1 X2.072 Y1.638 E37.74177
G1 X1.217 Y2.493 E37.8021
G1 X0.046 Y2.82 E37.86275
G1 X-1.116 Y2.481 E37.92314
G1 X-1.208 Y2.413 E37.92885
G1 X-1.406 Y2.332 E37.93952
G1 X-1.479 Y2.311 E37.94331
G1 X-2.409 Y1.381 E38.00893
G1 X-2.732 Y0.274 E38.06646
G1 X-2.406 Y-.845 E38.12461
G1 X-1.528 Y-1.772 E38.18831
G1 X-.364 Y-2.098 E38.24861
G1 X0.842 Y-1.761 E38.31109
G1 X0.939 Y-1.684 E38.31727
G0 F4500 X1.285 Y-1.968
G1 F1500 X1.419 Y-1.931 E38.3242
G1 X2.429 Y-.864 E38.3975
G1 X2.816 Y0.465 E38.46656
G1 X2.429 Y1.847 E38.53816
G1 X1.427 Y2.849 E38.60886
G1 X0.048 Y3.235 E38.6803
G1 X0.039 Y3.235 E38.68075
G1 X-1.297 Y2.845 E38.75018
G1 X-1.518 Y2.716 E38.76295
G1 X-1.69 Y2.666 E38.77189
G1 X-2.764 Y1.592 E38.84766
G1 X-3.149 Y0.274 E38.91617
G1 X-2.763 Y-1.051 E38.98502
G1 X-1.743 Y-2.126 E39.05895
G1 X-.364 Y-2.513 E39.13041
G1 X1.022 Y-2.126 E39.2022
G1 X1.285 Y-1.968 E39.21751
G0 F4500 X1.391 Y-2.354
G1 F1500 X1.633 Y-2.287 E39.23003
G1 X2.786 Y-1.07 E39.31367
G1 X3.232 Y0.462 E39.39328
G1 X2.786 Y2.056 E39.47586
G1 X1.636 Y3.206 E39.557
G1 X0.102 Y3.635 E39.63646
G1 X-0.018 Y3.635 E39.64245
G1 X-1.487 Y3.206 E39.7188
G1 X-1.544 Y3.15 E39.72279
G1 X-1.629 Y3.1 E39.72771
G1 X-1.901 Y3.021 E39.74184
G1 X-3.119 Y1.803 E39.82777
G1 X-3.566 Y0.274 E39.90725
G1 X-3.12 Y-1.255 E39.98671
G1 X-1.957 Y-2.482 E40.07105
G1 X-.365 Y-2.928 E40.15354
G1 X1.229 Y-2.483 E40.2361
G1 X1.299 Y-2.409 E40.24119
G1 X1.391 Y-2.354 E40.24653
G1 F2700 E35.24653
G0 F4500 X0.943 Y-14.6
G1 F2700 E40.27314
G1 F1500 X-2.915 Y-14.6 E40.46562
G1 X-4.013 Y-15.698 E40.54309
G1 X-4.5 Y-17.362 E40.62959
G1 X-4.013 Y-19.028 E40.71618
G1 X-2.758 Y-20.353 E40.80723
G1 X-1.023 Y-20.84 E40.89714
G1 X0.712 Y-20.353 E40.98704
G1 X1.967 Y-19.028 E41.07809
G1 X2.454 Y-17.361 E41.16474
G1 X1.969 Y-15.626 E41.25461
G1 X0.943 Y-14.6 E41.327
G0 F4500 X0.777 Y-15
G1 F1500 X-2.749 Y-15 E41.50292
G1 X-3.658 Y-15.909 E41.56705
G1 X-4.083 Y-17.362 E41.64258
G1 X-3.657 Y-18.822 E41.71846
G1 X-2.543 Y-19.999 E41.79931
G1 X-1.023 Y-20.425 E41.87806
G1 X0.497 Y-19.999 E41.95682
G1 X1.611 Y-18.822 E42.03767
G1 X2.038 Y-17.358 E42.11375
G1 X1.612 Y-15.835 E42.19265
G1 X0.777 Y-15 E42.25156
G0 F4500 X0.611 Y-15.4
G1 F1500 X-2.583 Y-15.4 E42.41091
G1 X-3.302 Y-16.119 E42.46164
G1 X-3.666 Y-17.363 E42.52631
G1 X-3.299 Y-18.618 E42.59154
G1 X-2.329 Y-19.643 E42.66195
G1 X-1.023 Y-20.009 E42.72962
G1 X0.283 Y-19.643 E42.79728
G1 X1.253 Y-18.618 E42.86769
G1 X1.622 Y-17.355 E42.93333
G1 X1.256 Y-16.045 E43.00119
G1 X0.611 Y-15.4 E43.0467
G1 F2700 E38.0467
G0 F4500 X10.849 Y-12.53
G0 X11.571 Y-12.162
G0 X12.162 Y-11.571
G0 X12.542 Y-10.825
G0 X12.664 Y10.287
G0 X12.162 Y11.571
G0 X11.589 Y12.143
G0 X10.708 Y12.545
G0 X1.34 Y14.6
G1 F2700 E43.07331
G1 F1500 X2.377 Y15.696 E43.14859
G1 X2.864 Y17.363 E43.23523
G1 X2.379 Y19.098 E43.32511
G1 X1.123 Y20.354 E43.41372
G1 X-.612 Y20.839 E43.5036
G1 X-2.277 Y20.352 E43.59015
G1 X-3.602 Y19.027 E43.68364
G1 X-3.672 Y18.922 E43.68993
G1 X-3.795 Y18.88 E43.69642
G1 X-3.863 Y18.88 E43.69981
G1 X-3.982 Y18.919 E43.70606
G1 X-4.056 Y19.026 E43.71255
G1 X-4.076 Y19.099 E43.71632
G1 X-5.331 Y20.354 E43.80487
G1 X-7.066 Y20.839 E43.89475
G1 X-8.731 Y20.352 E43.9813
G1 X-10.057 Y19.026 E44.07485
G1 X-10.544 Y17.362 E44.16135
G1 X-10.057 Y15.696 E44.24795
G1 X-9.02 Y14.6 E44.32322
G1 X-5.114 Y14.6 E44.51809
G1 X-4.077 Y15.696 E44.59337
G1 X-4.066 Y15.734 E44.59534
G1 X-3.996 Y15.837 E44.60156
G1 X-3.874 Y15.878 E44.60798
G1 X-3.806 Y15.878 E44.61137
G1 X-3.687 Y15.839 E44.61762
G1 X-3.614 Y15.734 E44.624
G1 X-3.603 Y15.696 E44.62597
G1 X-2.566 Y14.6 E44.70125
G1 X1.34 Y14.6 E44.89612
G0 F4500 X1.167 Y15
G1 F1500 X2.021 Y15.902 E44.95809
G1 X2.448 Y17.366 E45.03417
G1 X2.022 Y18.889 E45.11307
G1 X0.914 Y19.997 E45.19125
G1 X-.609 Y20.423 E45.27015
G1 X-2.066 Y19.997 E45.34588
G1 X-3.286 Y18.777 E45.43196
G1 X-3.313 Y18.722 E45.43501
G1 X-3.473 Y18.574 E45.44589
G1 X-3.675 Y18.492 E45.45676
G1 X-3.795 Y18.48 E45.46278
G1 X-3.863 Y18.48 E45.46617
