;FLAVOR:Marlin
;TIME:1480
;Filament used: 1.30202m
;Layer height: 0.22
;MINX:-20.2
;MINY:-20.2
;MINZ:0.3
;MAXX:20.2
;MAXY:20.2
;MAXZ:11.96
;TARGET_MACHINE.NAME:Unknown
;Generated with Cura_SteamEngine 5.12.0
M140 S60
M105
M190 S60
M104 S215
M105
M109 S215
G28 ;Home
G1 Z15.0 F6000 ;Move the platform down 15mm
;Prime the extruder
G92 E0
G1 F200 E3
G92 E0
M82 ;absolute extrusion mode
G92 E0
G92 E0
G1 F2700 E-5
;LAYER_COUNT:54
;LAYER:0
M107
G0 F4500 X-20.162 Y10.627 Z0.3
;TYPE:SKIRT
G1 F2700 E0.02661
G1 F1500 X-20.2 Y-11.274 E1.11926
G1 X-19.562 Y-13.647 E1.24185
G1 X-18.325 Y-16.071 E1.37762
G1 X-16.072 Y-18.324 E1.53658
G1 X-13.119 Y-19.833 E1.70203
G1 X-10.627 Y-20.162 E1.82743
G1 X11.274 Y-20.2 E2.92008
G1 X13.647 Y-19.562 E3.04267
G1 X16.071 Y-18.325 E3.17844
G1 X18.324 Y-16.072 E3.3374
G1 X19.833 Y-13.119 E3.50285
G1 X20.162 Y-10.627 E3.62826
G1 X20.2 Y11.274 E4.7209
G1 X19.562 Y13.647 E4.8435
G1 X18.325 Y16.071 E4.97927
G1 X16.478 Y17.918 E5.10958
G1 X14.482 Y19.254 E5.22941
G1 X11.549 Y20.2 E5.38316
G1 X-11.318 Y20.2 E6.524
G1 X-13.6 Y19.576 E6.64203
G1 X-16.085 Y18.311 E6.78115
G1 X-18.324 Y16.072 E6.93912
G1 X-19.833 Y13.119 E7.10457
G1 X-20.162 Y10.627 E7.22997
G0 F4500 X-19.762 Y10.626
G1 F1500 X-19.8 Y-11.222 E8.31998
G1 X-19.187 Y-13.502 E8.43777
G1 X-17.998 Y-15.832 E8.56827
G1 X-15.833 Y-17.997 E8.72102
G1 X-12.998 Y-19.446 E8.87987
G1 X-10.626 Y-19.762 E8.99925
G1 X11.222 Y-19.8 E10.08925
G1 X13.502 Y-19.187 E10.20704
G1 X15.832 Y-17.998 E10.33755
G1 X17.997 Y-15.833 E10.4903
G1 X19.446 Y-12.998 E10.64914
G1 X19.762 Y-10.626 E10.76853
G1 X19.8 Y11.222 E11.85853
G1 X19.187 Y13.502 E11.97632
G1 X17.998 Y15.832 E12.10682
G1 X16.22 Y17.61 E12.23227
G1 X14.309 Y18.889 E12.34699
G1 X11.485 Y19.8 E12.49503
G1 X-11.264 Y19.8 E13.62999
G1 X-13.456 Y19.201 E13.74336
G1 X-15.846 Y17.984 E13.87716
G1 X-17.997 Y15.833 E14.02893
G1 X-19.446 Y12.998 E14.18777
G1 X-19.762 Y10.626 E14.30715
G0 F4500 X-19.365 Y10.573
G1 F1500 X-19.4 Y-11.17 E15.39192
G1 X-18.812 Y-13.357 E15.5049
G1 X-17.671 Y-15.593 E15.63014
G1 X-15.594 Y-17.67 E15.77668
G1 X-12.879 Y-19.058 E15.92881
G1 X-10.573 Y-19.365 E16.04487
G1 X11.17 Y-19.4 E17.12964
G1 X13.357 Y-18.812 E17.24262
G1 X15.593 Y-17.671 E17.36786
G1 X17.67 Y-15.594 E17.5144
G1 X19.058 Y-12.879 E17.66653
G1 X19.365 Y-10.573 E17.78259
G1 X19.4 Y11.17 E18.86736
G1 X18.812 Y13.357 E18.98034
G1 X17.671 Y15.593 E19.10558
G1 X15.964 Y17.3 E19.22602
G1 X14.134 Y18.525 E19.33589
G1 X11.421 Y19.4 E19.4781
G1 X-11.21 Y19.4 E20.60717
G1 X-13.314 Y18.825 E20.71599
G1 X-15.606 Y17.658 E20.8443
G1 X-17.67 Y15.594 E20.98993
G1 X-19.058 Y12.879 E21.14206
G1 X-19.365 Y10.573 E21.25812
G0 F4500 X-18.968 Y10.52
G1 F1500 X-19 Y-11.118 E22.33764
G1 X-18.437 Y-13.212 E22.44582
G1 X-17.344 Y-15.354 E22.5658
G1 X-15.355 Y-17.343 E22.70613
G1 X-12.76 Y-18.67 E22.85154
G1 X-10.52 Y-18.968 E22.96428
G1 X11.118 Y-19 E24.04381
G1 X13.212 Y-18.437 E24.15199
G1 X15.354 Y-17.344 E24.27196
G1 X17.343 Y-15.355 E24.41229
G1 X18.67 Y-12.76 E24.55771
G1 X18.968 Y-10.52 E24.67044
G1 X19 Y11.118 E25.74997
G1 X18.437 Y13.212 E25.85815
G1 X17.344 Y15.354 E25.97812
G1 X15.706 Y16.992 E26.09369
G1 X13.961 Y18.16 E26.19845
G1 X11.357 Y19 E26.33496
G1 X-11.156 Y19 E27.45814
G1 X-13.172 Y18.449 E27.5624
G1 X-15.366 Y17.332 E27.68523
G1 X-17.343 Y15.355 E27.82472
G1 X-18.67 Y12.76 E27.97013
G1 X-18.968 Y10.52 E28.08287
G0 F4500 X-18.568 Y10.519
G1 F1500 X-18.6 Y-11.066 E29.15975
G1 X-18.062 Y-13.067 E29.26313
G1 X-17.017 Y-15.115 E29.37783
G1 X-15.116 Y-17.016 E29.51196
G1 X-12.638 Y-18.283 E29.65081
G1 X-10.519 Y-18.568 E29.75748
G1 X11.066 Y-18.6 E30.83436
G1 X13.067 Y-18.062 E30.93774
G1 X15.115 Y-17.017 E31.05245
G1 X17.016 Y-15.116 E31.18657
G1 X18.283 Y-12.638 E31.32542
G1 X18.568 Y-10.519 E31.43209
G1 X18.6 Y11.066 E32.50897
G1 X18.062 Y13.067 E32.61235
G1 X17.017 Y15.115 E32.72706
G1 X15.448 Y16.684 E32.83776
G1 X13.788 Y17.795 E32.93741
G1 X11.293 Y18.6 E33.06821
G1 X-11.102 Y18.6 E34.1855
G1 X-13.03 Y18.073 E34.28521
G1 X-15.126 Y17.006 E34.40255
G1 X-17.016 Y15.116 E34.5359
G1 X-18.283 Y12.638 E34.67475
G1 X-18.568 Y10.519 E34.78142
G0 F4500 X-18.168 Y10.518
G1 F1500 X-18.2 Y-11.014 E35.85566
G1 X-17.687 Y-12.922 E35.95423
G1 X-16.69 Y-14.876 E36.06367
G1 X-14.877 Y-16.689 E36.19159
G1 X-12.516 Y-17.896 E36.32388
G1 X-10.518 Y-18.168 E36.42448
G1 X11.014 Y-18.2 E37.49872
G1 X12.922 Y-17.687 E37.59729
G1 X14.876 Y-16.69 E37.70673
G1 X16.689 Y-14.877 E37.83465
G1 X17.896 Y-12.516 E37.96694
G1 X18.168 Y-10.518 E38.06754
G1 X18.2 Y11.014 E39.14178
G1 X17.687 Y12.922 E39.24035
G1 X16.69 Y14.876 E39.34979
G1 X15.192 Y16.374 E39.45548
G1 X13.613 Y17.431 E39.55028
G1 X11.229 Y18.2 E39.67525
G1 X-11.048 Y18.2 E40.78666
G1 X-12.888 Y17.697 E40.88182
G1 X-14.886 Y16.68 E40.99367
G1 X-16.689 Y14.877 E41.12088
G1 X-17.896 Y12.516 E41.25317
G1 X-18.168 Y10.518 E41.35377
G0 F4500 X-17.768 Y10.517
G1 F1500 X-17.8 Y-10.962 E42.42537
G1 X-17.312 Y-12.777 E42.51913
G1 X-16.363 Y-14.637 E42.62331
G1 X-14.638 Y-16.362 E42.74502
G1 X-12.395 Y-17.509 E42.8707
G1 X-10.517 Y-17.768 E42.96529
G1 X10.962 Y-17.8 E44.03688
G1 X12.777 Y-17.312 E44.13064
G1 X14.637 Y-16.363 E44.23482
G1 X16.362 Y-14.638 E44.35653
G1 X17.509 Y-12.395 E44.48222
G1 X17.768 Y-10.517 E44.5768
G1 X17.8 Y10.962 E45.64839
G1 X17.312 Y12.777 E45.74216
G1 X16.363 Y14.637 E45.84633
G1 X14.934 Y16.066 E45.94716
G1 X13.44 Y17.066 E46.03685
G1 X11.165 Y17.8 E46.15611
G1 X-10.994 Y17.8 E47.26163
G1 X-12.744 Y17.322 E47.35213
G1 X-14.647 Y16.353 E47.45867
G1 X-16.362 Y14.638 E47.57967
G1 X-17.509 Y12.395 E47.70536
G1 X-17.768 Y10.517 E47.79994
G0 F4500 X-17.368 Y10.516
G1 F1500 X-17.4 Y-10.91 E48.86889
G1 X-16.937 Y-12.632 E48.95785
G1 X-16.036 Y-14.398 E49.05676
G1 X-14.399 Y-16.035 E49.17226
G1 X-12.273 Y-17.122 E49.29139
G1 X-10.516 Y-17.368 E49.3799
G1 X10.91 Y-17.4 E50.44885
G1 X12.632 Y-16.937 E50.53781
G1 X14.398 Y-16.036 E50.63672
G1 X16.035 Y-14.399 E50.75222
G1 X17.122 Y-12.273 E50.87135
G1 X17.368 Y-10.516 E50.95986
G1 X17.4 Y10.91 E52.02881
G1 X16.937 Y12.632 E52.11777
G1 X16.036 Y14.398 E52.21668
G1 X14.676 Y15.758 E52.31264
G1 X13.267 Y16.701 E52.39722
G1 X11.101 Y17.4 E52.51077
G1 X-10.94 Y17.4 E53.6104
G1 X-12.602 Y16.946 E53.69636
G1 X-14.407 Y16.027 E53.79741
G1 X-16.035 Y14.399 E53.91227
G1 X-17.122 Y12.273 E54.0314
G1 X-17.368 Y10.516 E54.11991
G0 F4500 X-16.968 Y10.515
G1 F1500 X-17 Y-10.858 E55.18622
G1 X-16.562 Y-12.487 E55.27037
G1 X-15.709 Y-14.159 E55.36402
G1 X-14.16 Y-15.708 E55.47331
G1 X-12.151 Y-16.735 E55.58588
G1 X-10.515 Y-16.968 E55.66832
G1 X10.858 Y-17 E56.73462
G1 X12.487 Y-16.562 E56.81878
G1 X14.159 Y-15.709 E56.91243
G1 X15.708 Y-14.16 E57.02172
G1 X16.735 Y-12.151 E57.13428
G1 X16.968 Y-10.515 E57.21673
G1 X17 Y10.858 E58.28303
G1 X16.562 Y12.487 E58.36719
G1 X15.709 Y14.159 E58.46083
G1 X14.42 Y15.448 E58.55178
G1 X13.092 Y16.337 E58.63151
G1 X11.037 Y17 E58.73924
G1 X-10.886 Y17 E59.83298
G1 X-12.46 Y16.57 E59.91438
G1 X-14.167 Y15.701 E60.00995
G1 X-15.708 Y14.16 E60.11867
G1 X-16.735 Y12.151 E60.23124
G1 X-16.968 Y10.515 E60.31368
G0 F4500 X-16.568 Y10.514
G1 F1500 X-16.6 Y-10.806 E61.37734
G1 X-16.187 Y-12.342 E61.4567
G1 X-15.382 Y-13.92 E61.54508
G1 X-13.921 Y-15.381 E61.64816
G1 X-12.029 Y-16.348 E61.75416
G1 X-10.514 Y-16.568 E61.83054
G1 X10.806 Y-16.6 E62.8942
G1 X12.342 Y-16.187 E62.97355
G1 X13.92 Y-15.382 E63.06193
G1 X15.381 Y-13.921 E63.16501
G1 X16.348 Y-12.029 E63.27102
G1 X16.568 Y-10.514 E63.3474
G1 X16.6 Y10.806 E64.41106
G1 X16.187 Y12.342 E64.49041
G1 X15.382 Y13.92 E64.57879
G1 X14.162 Y15.14 E64.66487
G1 X12.919 Y15.972 E64.73949
G1 X10.973 Y16.6 E64.84151
G1 X-10.832 Y16.6 E65.92936
G1 X-12.318 Y16.194 E66.00622
G1 X-13.927 Y15.375 E66.09629
G1 X-15.381 Y13.921 E66.19888
G1 X-16.348 Y12.029 E66.30489
G1 X-16.568 Y10.514 E66.38126
G0 F4500 X-16.172 Y10.456
G1 F1500 X-16.2 Y-10.754 E67.43943
G1 X-15.812 Y-12.197 E67.51398
G1 X-15.055 Y-13.681 E67.5971
G1 X-13.682 Y-15.054 E67.69397
G1 X-11.907 Y-15.961 E67.79342
G1 X-10.456 Y-16.172 E67.86657
G1 X10.754 Y-16.2 E68.92474
G1 X12.197 Y-15.812 E68.99929
G1 X13.681 Y-15.055 E69.0824
G1 X15.054 Y-13.682 E69.17927
G1 X15.961 Y-11.907 E69.27872
G1 X16.172 Y-10.456 E69.35187
G1 X16.2 Y10.754 E70.41004
G1 X15.812 Y12.197 E70.48459
G1 X15.055 Y13.681 E70.56771
G1 X13.904 Y14.832 E70.64892
G1 X12.746 Y15.607 E70.71843
G1 X10.909 Y16.2 E70.81474
G1 X-10.778 Y16.2 E71.89671
G1 X-12.174 Y15.819 E71.9689
G1 X-13.688 Y15.048 E72.05367
G1 X-15.054 Y13.682 E72.15004
G1 X-15.961 Y11.907 E72.24949
G1 X-16.172 Y10.456 E72.32264
G0 F4500 X-15.776 Y10.398
G1 F1500 X-15.8 Y-10.702 E73.37533
G1 X-15.437 Y-12.052 E73.44507
G1 X-14.728 Y-13.442 E73.52292
G1 X-13.443 Y-14.727 E73.61358
G1 X-11.785 Y-15.574 E73.70647
G1 X-10.398 Y-15.776 E73.7764
G1 X10.702 Y-15.8 E74.82908
G1 X12.052 Y-15.437 E74.89882
G1 X13.442 Y-14.728 E74.97667
G1 X14.727 Y-13.443 E75.06734
G1 X15.574 Y-11.785 E75.16022
G1 X15.776 Y-10.398 E75.23015
G1 X15.8 Y10.702 E76.28283
G1 X15.437 Y12.052 E76.35258
G1 X14.728 Y13.442 E76.43043
G1 X13.646 Y14.524 E76.50677
G1 X12.573 Y15.242 E76.57118
G1 X10.845 Y15.8 E76.66177
G1 X-10.724 Y15.8 E77.73785
G1 X-12.032 Y15.443 E77.8055
G1 X-13.448 Y14.722 E77.88477
G1 X-14.727 Y13.443 E77.97501
G1 X-15.574 Y11.785 E78.0679
G1 X-15.776 Y10.398 E78.13783
G0 F4500 X-15.38 Y10.34
G1 F1500 X-15.4 Y-10.65 E79.18502
G1 X-15.062 Y-11.907 E79.24996
G1 X-14.401 Y-13.203 E79.32254
G1 X-13.204 Y-14.4 E79.407
G1 X-11.663 Y-15.187 E79.49333
G1 X-10.34 Y-15.38 E79.56003
G1 X10.65 Y-15.4 E80.60722
G1 X11.907 Y-15.062 E80.67216
G1 X13.203 Y-14.401 E80.74475
G1 X14.4 Y-13.204 E80.8292
G1 X15.187 Y-11.663 E80.91553
G1 X15.38 Y-10.34 E80.98223
G1 X15.4 Y10.65 E82.02943
G1 X15.062 Y11.907 E82.09437
G1 X14.401 Y13.203 E82.16695
G1 X13.388 Y14.216 E82.23842
G1 X12.4 Y14.877 E82.29773
G1 X10.781 Y15.4 E82.38261
G1 X-10.67 Y15.4 E83.4528
G1 X-11.89 Y15.067 E83.5159
G1 X-13.208 Y14.396 E83.58968
G1 X-14.4 Y13.204 E83.67378
G1 X-15.187 Y11.663 E83.76011
G1 X-15.38 Y10.34 E83.82681
G0 F4500 X-14.984 Y10.282
G1 F1500 X-15 Y-10.598 E84.86852
G1 X-14.687 Y-11.762 E84.92866
G1 X-14.074 Y-12.964 E84.99597
G1 X-12.965 Y-14.073 E85.07422
G1 X-11.541 Y-14.8 E85.15399
G1 X-10.282 Y-14.984 E85.21746
G1 X10.598 Y-15 E86.25917
G1 X11.762 Y-14.687 E86.31931
G1 X12.964 Y-14.074 E86.38662
G1 X14.073 Y-12.965 E86.46487
G1 X14.8 Y-11.541 E86.54464
G1 X14.984 Y-10.282 E86.60812
G1 X15 Y10.598 E87.64982
G1 X14.687 Y11.762 E87.70996
G1 X14.074 Y12.964 E87.77727
G1 X13.13 Y13.908 E87.84388
G1 X12.227 Y14.512 E87.89808
G1 X10.717 Y15 E87.97725
G1 X-10.616 Y15 E89.04156
G1 X-11.748 Y14.691 E89.1001
G1 X-12.968 Y14.07 E89.1684
G1 X-14.073 Y12.965 E89.24636
G1 X-14.8 Y11.541 E89.32613
G1 X-14.984 Y10.282 E89.38961
G0 F4500 X-14.588 Y10.224
G1 F1500 X-14.6 Y-10.546 E90.42583
G1 X-14.312 Y-11.617 E90.48116
G1 X-13.747 Y-12.725 E90.54321
G1 X-12.726 Y-13.746 E90.61524
G1 X-11.419 Y-14.413 E90.68845
G1 X-10.224 Y-14.588 E90.7487
G1 X10.546 Y-14.6 E91.78492
G1 X11.617 Y-14.312 E91.84026
G1 X12.725 Y-13.747 E91.90231
G1 X13.746 Y-12.726 E91.97434
G1 X14.413 Y-11.419 E92.04755
G1 X14.588 Y-10.224 E92.1078
G1 X14.6 Y10.546 E93.14402
G1 X14.312 Y11.617 E93.19935
G1 X13.747 Y12.725 E93.2614
G1 X12.875 Y13.597 E93.32293
G1 X12.051 Y14.148 E93.37238
G1 X10.653 Y14.6 E93.44568
G1 X-10.562 Y14.6 E94.5041
G1 X-11.606 Y14.315 E94.5581
G1 X-12.728 Y13.744 E94.6209
G1 X-13.746 Y12.726 E94.69273
G1 X-14.413 Y11.419 E94.76594
G1 X-14.588 Y10.224 E94.82619
G0 F4500 X-14.192 Y10.166
G1 F1500 X-14.2 Y-10.494 E95.85692
G1 X-13.937 Y-11.472 E95.90745
G1 X-13.42 Y-12.486 E95.96423
G1 X-12.487 Y-13.419 E96.03006
G1 X-11.297 Y-14.026 E96.09671
G1 X-10.166 Y-14.192 E96.15374
G1 X10.494 Y-14.2 E97.18447
G1 X11.472 Y-13.937 E97.235
G1 X12.486 Y-13.42 E97.29178
G1 X13.419 Y-12.487 E97.35761
G1 X14.026 Y-11.297 E97.42426
G1 X14.192 Y-10.166 E97.48129
G1 X14.2 Y10.494 E98.51202
G1 X13.937 Y11.472 E98.56255
G1 X13.42 Y12.486 E98.61933
G1 X12.62 Y13.286 E98.67577
G1 X11.875 Y13.784 E98.72048
G1 X10.589 Y14.2 E98.78791
G1 X-10.508 Y14.2 E99.84045
G1 X-11.462 Y13.94 E99.88978
G1 X-12.489 Y13.417 E99.94728
G1 X-13.419 Y12.487 E100.01289
G1 X-14.026 Y11.297 E100.07954
G1 X-14.192 Y10.166 E100.13657
G0 F4500 X-13.796 Y10.108
G1 F1500 X-13.8 Y-10.442 E101.16181
G1 X-13.562 Y-11.327 E101.20754
G1 X-13.093 Y-12.247 E101.25905
G1 X-12.248 Y-13.092 E101.31867
G1 X-11.175 Y-13.639 E101.37876
G1 X-10.108 Y-13.796 E101.43257
G1 X10.442 Y-13.8 E102.45781
G1 X11.327 Y-13.562 E102.50353
G1 X12.247 Y-13.093 E102.55505
G1 X13.092 Y-12.248 E102.61467
G1 X13.639 Y-11.175 E102.67476
G1 X13.796 Y-10.108 E102.72856
G1 X13.8 Y10.442 E103.75381
G1 X13.562 Y11.327 E103.79953
G1 X13.093 Y12.247 E103.85105
G1 X12.365 Y12.975 E103.90241
G1 X11.699 Y13.42 E103.94237
G1 X10.525 Y13.8 E104.00394
G1 X-10.454 Y13.8 E105.05058
G1 X-11.32 Y13.564 E105.09536
G1 X-12.249 Y13.091 E105.14737
G1 X-13.092 Y12.248 E105.20685
G1 X-13.639 Y11.175 E105.26694
G1 X-13.796 Y10.108 E105.32074
G0 F4500 X-13.4 Y10.05
G1 F1500 X-13.4 Y-10.39 E106.3405
G1 X-13.187 Y-11.182 E106.38142
G1 X-12.766 Y-12.008 E106.42767
G1 X-12.009 Y-12.765 E106.48108
G1 X-11.053 Y-13.252 E106.53461
G1 X-10.05 Y-13.4 E106.58519
G1 X10.39 Y-13.4 E107.60495
G1 X11.182 Y-13.187 E107.64586
G1 X12.008 Y-12.766 E107.69212
G1 X12.765 Y-12.009 E107.74553
G1 X13.252 Y-11.053 E107.79905
G1 X13.4 Y-10.05 E107.84963
G1 X13.4 Y10.39 E108.86939
G1 X13.187 Y11.182 E108.91031
G1 X12.766 Y12.008 E108.95656
G1 X12.11 Y12.664 E109.00285
G1 X11.523 Y13.056 E109.03806
G1 X10.461 Y13.4 E109.09375
G1 X-10.4 Y13.4 E110.13451
G1 X-11.178 Y13.188 E110.17474
G1 X-12.009 Y12.765 E110.22126
G1 X-12.765 Y12.009 E110.2746
G1 X-13.252 Y11.053 E110.32813
G1 X-13.4 Y10.05 E110.37871
G0 F4500 X-12.6 Y10.05
G1 F1500 X-12.6 Y-10.286 E111.39328
G1 X-12.437 Y-10.89 E111.42449
G1 X-12.111 Y-11.531 E111.46037
G1 X-11.531 Y-12.111 E111.50129
G1 X-10.805 Y-12.48 E111.54192
G1 X-10.05 Y-12.6 E111.58006
G1 X10.286 Y-12.6 E112.59463
G1 X10.89 Y-12.437 E112.62584
G1 X11.531 Y-12.111 E112.66172
G1 X12.111 Y-11.531 E112.70264
G1 X12.48 Y-10.805 E112.74327
G1 X12.6 Y-10.05 E112.78141
G1 X12.6 Y10.286 E113.79598
G1 X12.437 Y10.89 E113.82719
G1 X12.111 Y11.531 E113.86307
G1 X11.6 Y12.042 E113.89912
G1 X11.169 Y12.329 E113.92496
G1 X10.335 Y12.6 E113.96871
G1 X-10.292 Y12.6 E114.99779
G1 X-10.89 Y12.437 E115.02871
G1 X-11.531 Y12.111 E115.06459
G1 X-12.111 Y11.531 E115.10551
G1 X-12.48 Y10.805 E115.14614
G1 X-12.6 Y10.05 E115.18428
G0 F4500 X-13 Y10.05
G1 F1500 X-13 Y-10.338 E116.20144
G1 X-12.812 Y-11.037 E116.23756
G1 X-12.439 Y-11.769 E116.27854
G1 X-11.769 Y-12.439 E116.32582
G1 X-10.93 Y-12.866 E116.37278
G1 X-10.05 Y-13 E116.41719
G1 X10.338 Y-13 E117.43436
G1 X11.037 Y-12.812 E117.47047
G1 X11.769 Y-12.439 E117.51146
G1 X12.439 Y-11.769 E117.55873
G1 X12.866 Y-10.93 E117.60569
G1 X13 Y-10.05 E117.6501
G1 X13 Y10.338 E118.66727
G1 X12.812 Y11.037 E118.70338
G1 X12.439 Y11.769 E118.74437
G1 X11.855 Y12.353 E118.78557
G1 X11.347 Y12.692 E118.81604
G1 X10.397 Y13 E118.86586
G1 X-10.346 Y13 E119.90074
G1 X-11.036 Y12.812 E119.93641
G1 X-11.769 Y12.439 E119.97745
G1 X-12.439 Y11.769 E120.02472
G1 X-12.866 Y10.93 E120.07169
G1 X-13 Y10.05 E120.1161
G1 F2700 E115.1161
;MESH:Direct-Power-Sun-Lanterns.STL
G0 F4500 X1.193 Y4.601
;TYPE:WALL-INNER
G1 F2700 E120.1427
G1 F1500 X0.398 Y4.732 E120.1829
G1 X-.399 Y4.732 E120.22266
G1 X-1.197 Y4.599 E120.26303
G1 X-1.96 Y4.328 E120.30342
G1 X-2.665 Y3.93 E120.34381
G1 X-3.3 Y3.413 E120.38466
G1 X-3.818 Y2.831 E120.42354
G1 X-4.247 Y2.125 E120.46475
G1 X-4.544 Y1.39 E120.5043
G1 X-4.707 Y0.632 E120.54298
G1 X-4.744 Y-.18 E120.58353
G1 X-4.646 Y-.998 E120.62464
G1 X-4.408 Y-1.767 E120.6648
G1 X-4.044 Y-2.494 E120.70536
G1 X-3.564 Y-3.139 E120.74547
G1 X-2.985 Y-3.699 E120.78566
G1 X-2.317 Y-4.144 E120.8257
G1 X-1.582 Y-4.48 E120.86602
G1 X-.807 Y-4.682 E120.90598
G1 X0.00 Y-4.748 E120.94638
G1 X0.807 Y-4.682 E120.98677
G1 X1.582 Y-4.48 E121.02673
G1 X2.317 Y-4.144 E121.06705
G1 X2.985 Y-3.699 E121.10709
G1 X3.564 Y-3.139 E121.14728
