;FLAVOR:Marlin
;TIME:2104
;Filament used: 1.98116m
;Layer height: 0.22
;MINX:-34.221
;MINY:-34.222
;MINZ:0.3
;MAXX:34.221
;MAXY:34.221
;MAXZ:8.88
;TARGET_MACHINE.NAME:Unknown
;Generated with Cura_SteamEngine 5.12.0
M140 S60
M105
M190 S60
M104 S215
M105
M109 S215
G28 ;Home
G1 Z15.0 F6000 ;Move the platform down 15mm
;Prime the extruder
G92 E0
G1 F200 E3
G92 E0
M82 ;absolute extrusion mode
G92 E0
G92 E0
G1 F2700 E-5
;LAYER_COUNT:40
;LAYER:0
M107
G0 F4500 X21.5 Y34.221 Z0.3
;TYPE:SKIRT
G1 F2700 E0.02661
G1 F1500 X-22.36 Y34.174 E2.21479
G1 X-24.003 Y33.96 E2.29746
G1 X-25.438 Y33.582 E2.37149
G1 X-27.617 Y32.644 E2.48985
G1 X-28.569 Y32.064 E2.54546
G1 X-30.852 Y30.107 E2.69548
G1 X-31.651 Y29.145 E2.75787
G1 X-33.136 Y26.632 E2.9035
G1 X-33.519 Y25.652 E2.95599
G1 X-34.132 Y22.892 E3.09704
G1 X-34.221 Y21.5 E3.16663
G1 X-34.174 Y-22.36 E5.35482
G1 X-33.96 Y-24.003 E5.43748
G1 X-33.582 Y-25.438 E5.51152
G1 X-32.644 Y-27.617 E5.62987
G1 X-32.065 Y-28.568 E5.68542
G1 X-30.18 Y-30.783 E5.83052
G1 X-28.942 Y-31.794 E5.91027
G1 X-26.871 Y-33.016 E6.03024
G1 X-25.415 Y-33.586 E6.10824
G1 X-22.983 Y-34.125 E6.23252
G1 X-22.072 Y-34.202 E6.27813
G1 X21.5 Y-34.222 E8.45195
G1 X23.156 Y-34.098 E8.5348
G1 X26.135 Y-33.335 E8.68822
G1 X27.368 Y-32.778 E8.75572
G1 X28.784 Y-31.908 E8.83863
G1 X30.763 Y-30.198 E8.96912
G1 X31.725 Y-29.038 E9.0443
G1 X33.136 Y-26.632 E9.18346
G1 X33.519 Y-25.652 E9.23595
G1 X34.132 Y-22.892 E9.377
G1 X34.221 Y-21.5 E9.44659
G1 X34.174 Y22.36 E11.63478
G1 X33.96 Y24.003 E11.71744
G1 X33.582 Y25.438 E11.79147
G1 X32.644 Y27.617 E11.90983
G1 X32.064 Y28.569 E11.96544
G1 X30.14 Y30.823 E12.11329
G1 X28.855 Y31.862 E12.19574
G1 X27.241 Y32.835 E12.28976
G1 X25.056 Y33.696 E12.40693
G1 X23.214 Y34.091 E12.50092
G1 X21.5 Y34.221 E12.58667
G0 F4500 X21.5 Y33.821
G1 F1500 X-22.308 Y33.777 E14.77226
G1 X-23.951 Y33.563 E14.85493
G1 X-25.28 Y33.214 E14.92348
G1 X-27.411 Y32.301 E15.03914
G1 X-28.309 Y31.76 E15.09144
G1 X-30.544 Y29.851 E15.23809
G1 X-31.343 Y28.889 E15.30048
G1 X-32.763 Y26.486 E15.43973
G1 X-33.146 Y25.506 E15.49222
G1 X-33.733 Y22.866 E15.62715
G1 X-33.821 Y21.5 E15.69544
G1 X-33.777 Y-22.308 E17.88103
G1 X-33.563 Y-23.951 E17.96369
G1 X-33.214 Y-25.28 E18.03225
G1 X-32.301 Y-27.411 E18.14791
G1 X-31.76 Y-28.309 E18.20021
G1 X-29.898 Y-30.497 E18.34355
G1 X-28.738 Y-31.45 E18.41845
G1 X-26.724 Y-32.644 E18.53526
G1 X-25.328 Y-33.195 E18.61013
G1 X-22.896 Y-33.734 E18.73441
G1 X-22.04 Y-33.803 E18.77725
G1 X21.5 Y-33.822 E20.94947
G1 X23.126 Y-33.699 E21.03083
G1 X25.97 Y-32.97 E21.1773
G1 X27.203 Y-32.413 E21.2448
G1 X28.522 Y-31.605 E21.32197
G1 X30.501 Y-29.895 E21.45246
G1 X31.38 Y-28.835 E21.52116
G1 X32.763 Y-26.486 E21.65715
G1 X33.146 Y-25.506 E21.70965
G1 X33.733 Y-22.866 E21.84458
G1 X33.821 Y-21.5 E21.91287
G1 X33.777 Y22.308 E24.09846
G1 X33.563 Y23.951 E24.18112
G1 X33.214 Y25.28 E24.24967
G1 X32.301 Y27.411 E24.36533
G1 X31.76 Y28.309 E24.41764
G1 X29.861 Y30.534 E24.56358
G1 X28.648 Y31.519 E24.64153
G1 X27.034 Y32.492 E24.73556
G1 X24.971 Y33.305 E24.84618
G1 X23.183 Y33.692 E24.93745
G1 X21.5 Y33.821 E25.02166
G0 F4500 X21.5 Y33.421
G1 F1500 X-22.256 Y33.38 E27.20466
G1 X-23.899 Y33.166 E27.28732
G1 X-25.122 Y32.846 E27.35039
G1 X-27.253 Y31.933 E27.46606
G1 X-28.101 Y31.418 E27.51555
G1 X-30.236 Y29.595 E27.65562
G1 X-31.035 Y28.633 E27.71801
G1 X-32.39 Y26.34 E27.85088
G1 X-32.773 Y25.36 E27.90338
G1 X-33.334 Y22.84 E28.03218
G1 X-33.421 Y21.5 E28.09917
G1 X-33.38 Y-22.256 E30.28217
G1 X-33.166 Y-23.899 E30.36483
G1 X-32.846 Y-25.122 E30.4279
G1 X-31.933 Y-27.253 E30.54356
G1 X-31.418 Y-28.101 E30.59306
G1 X-29.594 Y-30.237 E30.73319
G1 X-28.533 Y-31.106 E30.80162
G1 X-26.576 Y-32.272 E30.91527
G1 X-25.241 Y-32.804 E30.98696
G1 X-22.809 Y-33.343 E31.11124
G1 X-22.01 Y-33.404 E31.15122
G1 X21.5 Y-33.422 E33.32194
G1 X23.095 Y-33.3 E33.40175
G1 X25.805 Y-32.605 E33.54133
G1 X27.038 Y-32.048 E33.60883
G1 X28.26 Y-31.302 E33.68026
G1 X30.239 Y-29.592 E33.81074
G1 X31.036 Y-28.631 E33.87303
G1 X32.39 Y-26.34 E34.0058
G1 X32.773 Y-25.36 E34.05829
G1 X33.334 Y-22.84 E34.18709
G1 X33.421 Y-21.5 E34.25409
G1 X33.38 Y22.256 E36.43708
G1 X33.166 Y23.899 E36.51974
G1 X32.846 Y25.122 E36.58281
G1 X31.933 Y27.253 E36.69848
G1 X31.418 Y28.101 E36.74797
G1 X29.581 Y30.246 E36.88887
G1 X28.441 Y31.176 E36.96227
G1 X26.827 Y32.149 E37.05629
G1 X24.886 Y32.914 E37.16038
G1 X23.152 Y33.293 E37.24893
G1 X21.5 Y33.421 E37.3316
G0 F4500 X21.5 Y33.021
G1 F1500 X-22.204 Y32.983 E39.512
G1 X-23.847 Y32.769 E39.59466
G1 X-24.965 Y32.478 E39.6523
G1 X-27.045 Y31.591 E39.76511
G1 X-27.893 Y31.076 E39.81461
G1 X-29.928 Y29.339 E39.94809
G1 X-30.727 Y28.377 E40.01048
G1 X-32.017 Y26.194 E40.13698
G1 X-32.4 Y25.214 E40.18948
G1 X-32.935 Y22.814 E40.31215
G1 X-33.021 Y21.5 E40.37785
G1 X-32.983 Y-22.204 E42.55825
G1 X-32.769 Y-23.847 E42.64091
G1 X-32.478 Y-24.965 E42.69855
G1 X-31.591 Y-27.045 E42.81136
G1 X-31.076 Y-27.893 E42.86086
G1 X-29.339 Y-29.928 E42.99434
G1 X-28.328 Y-30.762 E43.05973
G1 X-26.371 Y-31.928 E43.17338
G1 X-25.154 Y-32.414 E43.23876
G1 X-22.779 Y-32.944 E43.36016
G1 X-21.98 Y-33.005 E43.40014
G1 X21.5 Y-33.022 E45.56937
G1 X23.064 Y-32.901 E45.64763
G1 X25.64 Y-32.24 E45.78031
G1 X26.873 Y-31.683 E45.84781
G1 X27.998 Y-30.999 E45.9135
G1 X29.977 Y-29.289 E46.04398
G1 X30.727 Y-28.377 E46.10289
G1 X32.017 Y-26.194 E46.22939
G1 X32.4 Y-25.214 E46.28189
G1 X32.935 Y-22.814 E46.40456
G1 X33.021 Y-21.5 E46.47026
G1 X32.983 Y22.204 E48.65066
G1 X32.769 Y23.847 E48.73332
G1 X32.478 Y24.965 E48.79096
G1 X31.591 Y27.045 E48.90377
G1 X31.076 Y27.893 E48.95327
G1 X29.278 Y29.985 E49.09089
G1 X28.234 Y30.833 E49.15799
G1 X26.62 Y31.806 E49.25202
G1 X24.8 Y32.523 E49.34961
G1 X23.121 Y32.894 E49.4354
G1 X21.5 Y33.021 E49.51652
G0 F4500 X21.5 Y32.621
G1 F1500 X-22.152 Y32.586 E51.69432
G1 X-23.795 Y32.372 E51.77699
G1 X-24.863 Y32.091 E51.83208
G1 X-26.837 Y31.249 E51.93915
G1 X-27.685 Y30.734 E51.98865
G1 X-29.668 Y29.035 E52.11893
G1 X-30.418 Y28.123 E52.17784
G1 X-31.644 Y26.048 E52.29808
G1 X-32.027 Y25.068 E52.35057
G1 X-32.536 Y22.788 E52.46712
G1 X-32.621 Y21.5 E52.53152
G1 X-32.586 Y-22.152 E54.70933
G1 X-32.372 Y-23.795 E54.79199
G1 X-32.091 Y-24.863 E54.84708
G1 X-31.249 Y-26.837 E54.95415
G1 X-30.734 Y-27.685 E55.00365
G1 X-29.035 Y-29.668 E55.13393
G1 X-28.123 Y-30.418 E55.19284
G1 X-26.166 Y-31.584 E55.30649
G1 X-25.007 Y-32.042 E55.36866
G1 X-22.749 Y-32.545 E55.48408
G1 X-21.95 Y-32.606 E55.52406
G1 X21.5 Y-32.622 E57.69178
G1 X23.033 Y-32.502 E57.7685
G1 X25.475 Y-31.875 E57.89428
G1 X26.708 Y-31.318 E57.96178
G1 X27.737 Y-30.696 E58.02177
G1 X29.668 Y-29.035 E58.14885
G1 X30.418 Y-28.123 E58.20776
G1 X31.644 Y-26.048 E58.328
G1 X32.027 Y-25.068 E58.38049
G1 X32.536 Y-22.788 E58.49704
G1 X32.621 Y-21.5 E58.56144
G1 X32.586 Y22.152 E60.73925
G1 X32.372 Y23.795 E60.82191
G1 X32.091 Y24.863 E60.877
G1 X31.249 Y26.837 E60.98407
G1 X30.734 Y27.685 E61.03357
G1 X29.025 Y29.675 E61.16444
G1 X28.027 Y30.49 E61.22872
G1 X26.413 Y31.463 E61.32275
G1 X24.714 Y32.132 E61.41384
G1 X23.035 Y32.503 E61.49963
G1 X21.5 Y32.621 E61.57644
G0 F4500 X21.5 Y32.221
G1 F1500 X-22.101 Y32.189 E63.7517
G1 X-23.693 Y31.985 E63.83178
G1 X-24.761 Y31.704 E63.88687
G1 X-26.629 Y30.907 E63.98819
G1 X-27.477 Y30.392 E64.03769
G1 X-29.36 Y28.78 E64.16136
G1 X-30.074 Y27.919 E64.21716
G1 X-31.271 Y25.902 E64.33418
G1 X-31.654 Y24.922 E64.38667
G1 X-32.137 Y22.761 E64.49714
G1 X-32.221 Y21.5 E64.56019
G1 X-32.189 Y-22.101 E66.73546
G1 X-31.985 Y-23.693 E66.81553
G1 X-31.704 Y-24.761 E66.87063
G1 X-30.907 Y-26.629 E66.97195
G1 X-30.392 Y-27.477 E67.02145
G1 X-28.78 Y-29.36 E67.14511
G1 X-27.918 Y-30.074 E67.20096
G1 X-25.961 Y-31.24 E67.31461
G1 X-24.919 Y-31.652 E67.37051
G1 X-22.719 Y-32.146 E67.483
G1 X-21.92 Y-32.207 E67.52298
G1 X21.5 Y-32.222 E69.68921
G1 X23.001 Y-32.103 E69.76433
G1 X25.31 Y-31.51 E69.88327
G1 X26.543 Y-30.953 E69.95077
G1 X27.529 Y-30.354 E70.00832
G1 X29.36 Y-28.78 E70.12879
G1 X30.074 Y-27.919 E70.18459
G1 X31.271 Y-25.902 E70.30161
G1 X31.654 Y-24.922 E70.3541
G1 X32.137 Y-22.761 E70.46457
G1 X32.221 Y-21.5 E70.52762
G1 X32.189 Y22.101 E72.70289
G1 X31.985 Y23.693 E72.78296
G1 X31.704 Y24.761 E72.83806
G1 X30.907 Y26.629 E72.93938
G1 X30.392 Y27.477 E72.98888
G1 X28.722 Y29.414 E73.11647
G1 X27.82 Y30.147 E73.17446
G1 X26.206 Y31.12 E73.26848
G1 X24.628 Y31.741 E73.35309
G1 X22.949 Y32.112 E73.43887
G1 X21.5 Y32.221 E73.51137
G0 F4500 X21.5 Y31.821
G1 F1500 X-22.051 Y31.792 E75.68414
G1 X-23.591 Y31.598 E75.76157
G1 X-24.659 Y31.317 E75.81667
G1 X-26.421 Y30.565 E75.91225
G1 X-27.269 Y30.05 E75.96175
G1 X-29.053 Y28.523 E76.0789
G1 X-29.73 Y27.714 E76.13153
G1 X-30.898 Y25.756 E76.24528
G1 X-31.281 Y24.776 E76.29777
G1 X-31.738 Y22.734 E76.40216
G1 X-31.821 Y21.5 E76.46387
G1 X-31.792 Y-22.051 E78.63664
G1 X-31.598 Y-23.591 E78.71408
G1 X-31.317 Y-24.659 E78.76917
G1 X-30.565 Y-26.421 E78.86475
G1 X-30.05 Y-27.269 E78.91425
G1 X-28.523 Y-29.053 E79.0314
G1 X-27.713 Y-29.73 E79.08407
G1 X-25.756 Y-30.896 E79.19772
G1 X-24.774 Y-31.279 E79.25031
G1 X-22.689 Y-31.747 E79.35692
G1 X-21.89 Y-31.808 E79.3969
G1 X21.5 Y-31.822 E81.56163
G1 X22.969 Y-31.704 E81.63516
G1 X25.145 Y-31.145 E81.74724
G1 X26.378 Y-30.588 E81.81474
G1 X27.269 Y-30.05 E81.86667
G1 X29.053 Y-28.523 E81.98383
G1 X29.73 Y-27.714 E82.03645
G1 X30.898 Y-25.756 E82.1502
G1 X31.281 Y-24.776 E82.20269
G1 X31.738 Y-22.734 E82.30709
G1 X31.821 Y-21.5 E82.36879
G1 X31.792 Y22.051 E84.54156
G1 X31.598 Y23.591 E84.619
G1 X31.317 Y24.659 E84.6741
G1 X30.565 Y26.421 E84.76967
G1 X30.05 Y27.269 E84.81917
G1 X28.469 Y29.104 E84.94001
G1 X27.613 Y29.804 E84.99518
G1 X25.999 Y30.777 E85.0892
G1 X24.542 Y31.35 E85.16731
G1 X22.863 Y31.721 E85.2531
G1 X21.5 Y31.821 E85.32128
G0 F4500 X21.5 Y31.421
G1 F1500 X-22.002 Y31.395 E87.49161
G1 X-23.489 Y31.211 E87.56636
G1 X-24.557 Y30.93 E87.62145
G1 X-26.213 Y30.223 E87.71129
G1 X-27.061 Y29.708 E87.76078
G1 X-28.792 Y28.22 E87.87467
G1 X-29.387 Y27.508 E87.92096
G1 X-30.525 Y25.61 E88.03137
G1 X-30.908 Y24.63 E88.08386
G1 X-31.339 Y22.707 E88.18218
G1 X-31.421 Y21.5 E88.24254
G1 X-31.395 Y-22.002 E90.41286
G1 X-31.211 Y-23.489 E90.48761
G1 X-30.93 Y-24.557 E90.54271
G1 X-30.223 Y-26.213 E90.63254
G1 X-29.708 Y-27.061 E90.68204
G1 X-28.22 Y-28.792 E90.79592
G1 X-27.507 Y-29.387 E90.84225
G1 X-25.611 Y-30.523 E90.95252
G1 X-24.629 Y-30.906 E91.00511
G1 X-22.659 Y-31.348 E91.10584
G1 X-21.86 Y-31.409 E91.14581
G1 X21.5 Y-31.422 E93.30905
G1 X22.937 Y-31.305 E93.38098
G1 X24.98 Y-30.78 E93.48622
G1 X26.213 Y-30.223 E93.55372
G1 X27.061 Y-29.708 E93.60322
G1 X28.792 Y-28.22 E93.7171
G1 X29.387 Y-27.508 E93.76339
G1 X30.525 Y-25.61 E93.8738
G1 X30.908 Y-24.63 E93.92629
G1 X31.339 Y-22.707 E94.02461
G1 X31.421 Y-21.5 E94.08497
G1 X31.395 Y22.002 E96.25529
G1 X31.211 Y23.489 E96.33005
G1 X30.93 Y24.557 E96.38514
G1 X30.223 Y26.213 E96.47498
G1 X29.708 Y27.061 E96.52447
G1 X28.215 Y28.795 E96.63863
G1 X27.406 Y29.461 E96.69091
G1 X25.792 Y30.434 E96.78493
G1 X24.456 Y30.959 E96.85655
G1 X22.777 Y31.33 E96.94233
G1 X21.5 Y31.421 E97.00621
G0 F4500 X21.5 Y31.021
G1 F1500 X-21.954 Y30.998 E99.17413
G1 X-23.387 Y30.824 E99.24615
G1 X-24.455 Y30.543 E99.30125
G1 X-26.005 Y29.881 E99.38534
G1 X-26.853 Y29.366 E99.43483
G1 X-28.486 Y27.962 E99.54228
G1 X-29.044 Y27.301 E99.58543
G1 X-30.152 Y25.464 E99.69246
G1 X-30.535 Y24.484 E99.74495
G1 X-30.94 Y22.68 E99.8372
G1 X-31.021 Y21.5 E99.89621
G1 X-30.998 Y-21.954 E102.06414
G1 X-30.824 Y-23.387 E102.13615
G1 X-30.543 Y-24.455 E102.19125
G1 X-29.881 Y-26.005 E102.27534
G1 X-29.366 Y-26.853 E102.32483
G1 X-27.962 Y-28.486 E102.43228
G1 X-27.301 Y-29.044 E102.47543
G1 X-25.466 Y-30.15 E102.58233
G1 X-24.484 Y-30.533 E102.63491
G1 X-22.629 Y-30.949 E102.72976
G1 X-21.83 Y-31.01 E102.76974
G1 X21.5 Y-31.022 E104.93148
G1 X22.904 Y-30.906 E105.00176
G1 X24.816 Y-30.415 E105.10025
G1 X26.005 Y-29.881 E105.16527
G1 X26.853 Y-29.366 E105.21477
G1 X28.486 Y-27.962 E105.32221
G1 X29.044 Y-27.301 E105.36537
G1 X30.152 Y-25.464 E105.4724
G1 X30.535 Y-24.484 E105.52489
G1 X30.94 Y-22.68 E105.61714
G1 X31.021 Y-21.5 E105.67614
G1 X30.998 Y21.954 E107.84407
G1 X30.824 Y23.387 E107.91609
G1 X30.543 Y24.455 E107.97119
G1 X29.881 Y26.005 E108.05528
G1 X29.366 Y26.853 E108.10477
G1 X27.96 Y28.487 E108.21232
G1 X27.199 Y29.118 E108.26164
G1 X25.585 Y30.091 E108.35566
G1 X24.369 Y30.569 E108.42085
G1 X22.748 Y30.931 E108.50371
G1 X21.5 Y31.021 E108.56614
G0 F4500 X21.5 Y30.621
G1 F1500 X-21.907 Y30.601 E110.73172
G1 X-23.285 Y30.437 E110.80095
G1 X-24.353 Y30.156 E110.85605
G1 X-25.797 Y29.539 E110.93439
G1 X-26.645 Y29.024 E110.98389
G1 X-28.18 Y27.704 E111.08489
G1 X-28.738 Y27.043 E111.12805
G1 X-29.779 Y25.318 E111.22857
G1 X-30.162 Y24.338 E111.28106
G1 X-30.541 Y22.652 E111.36728
G1 X-30.621 Y21.5 E111.42489
G1 X-30.601 Y-21.907 E113.59047
G1 X-30.437 Y-23.285 E113.65971
G1 X-30.156 Y-24.353 E113.7148
G1 X-29.539 Y-25.797 E113.79314
G1 X-29.024 Y-26.645 E113.84264
G1 X-27.704 Y-28.18 E113.94364
G1 X-27.043 Y-28.738 E113.9868
G1 X-25.321 Y-29.777 E114.08714
G1 X-24.339 Y-30.16 E114.13973
G1 X-22.599 Y-30.55 E114.22869
G1 X-21.8 Y-30.611 E114.26867
G1 X21.5 Y-30.622 E116.42891
G1 X22.871 Y-30.507 E116.49755
G1 X24.653 Y-30.05 E116.58933
G1 X25.797 Y-29.539 E116.65184
G1 X26.645 Y-29.024 E116.70134
G1 X28.18 Y-27.704 E116.80234
G1 X28.738 Y-27.043 E116.8455
G1 X29.779 Y-25.318 E116.94602
G1 X30.162 Y-24.338 E116.99851
G1 X30.541 Y-22.652 E117.08473
G1 X30.621 Y-21.5 E117.14234
G1 X30.601 Y21.907 E119.30792
G1 X30.437 Y23.285 E119.37716
G1 X30.156 Y24.353 E119.43225
G1 X29.539 Y25.797 E119.51059
G1 X29.024 Y26.645 E119.56009
G1 X27.704 Y28.18 E119.66109
G1 X26.992 Y28.775 E119.70739
G1 X25.378 Y29.748 E119.80141
G1 X24.281 Y30.179 E119.86021
G1 X22.719 Y30.532 E119.94011
G1 X21.5 Y30.621 E120.00108
G0 F4500 X21.5 Y30.221
G1 F1500 X-21.861 Y30.204 E122.16437
G1 X-23.183 Y30.05 E122.23077
G1 X-24.251 Y29.769 E122.28587
G1 X-25.589 Y29.197 E122.35847
G1 X-26.437 Y28.682 E122.40796
G1 X-27.874 Y27.446 E122.50253
G1 X-28.432 Y26.785 E122.54569
G1 X-29.406 Y25.172 E122.63969
G1 X-29.789 Y24.192 E122.69219
G1 X-30.142 Y22.624 E122.77237
G1 X-30.221 Y21.5 E122.82859
G1 X-30.204 Y-21.861 E124.99187
G1 X-30.05 Y-23.183 E125.05828
G1 X-29.769 Y-24.251 E125.11337
G1 X-29.197 Y-25.589 E125.18597
G1 X-28.682 Y-26.437 E125.23547
G1 X-27.446 Y-27.874 E125.33003
G1 X-26.785 Y-28.432 E125.37319
G1 X-25.176 Y-29.404 E125.46697
G1 X-24.194 Y-29.787 E125.51956
G1 X-22.569 Y-30.151 E125.60264
G1 X-21.77 Y-30.212 E125.64262
G1 X21.5 Y-30.222 E127.80137
G1 X22.773 Y-30.119 E127.86508
G1 X24.491 Y-29.684 E127.9535
G1 X25.589 Y-29.197 E128.01343
G1 X26.437 Y-28.682 E128.06292
G1 X27.874 Y-27.446 E128.15749
G1 X28.432 Y-26.785 E128.20064
G1 X29.406 Y-25.172 E128.29465
G1 X29.789 Y-24.192 E128.34714
G1 X30.142 Y-22.624 E128.42733
G1 X30.221 Y-21.5 E128.48354
G1 X30.204 Y21.861 E130.64683
G1 X30.05 Y23.183 E130.71323
G1 X29.769 Y24.251 E130.76833
G1 X29.197 Y25.589 E130.84093
G1 X28.682 Y26.437 E130.89043
G1 X27.446 Y27.874 E130.98499
G1 X26.785 Y28.432 E131.02815
G1 X25.171 Y29.405 E131.12217
G1 X24.136 Y29.806 E131.17754
G1 X22.69 Y30.133 E131.25151
G1 X21.5 Y30.221 E131.31104
G0 F4500 X21.5 Y29.821
G1 F1500 X-21.816 Y29.807 E133.47208
G1 X-23.081 Y29.663 E133.5356
G1 X-24.149 Y29.382 E133.5907
G1 X-25.381 Y28.855 E133.65755
G1 X-26.229 Y28.34 E133.70705
G1 X-27.568 Y27.188 E133.79517
G1 X-28.126 Y26.527 E133.83833
G1 X-29.033 Y25.026 E133.92582
G1 X-29.416 Y24.046 E133.97832
G1 X-29.743 Y22.596 E134.05248
G1 X-29.821 Y21.5 E134.10729
G1 X-29.807 Y-21.816 E136.26834
G1 X-29.663 Y-23.081 E136.33186
G1 X-29.382 Y-24.149 E136.38695
G1 X-28.855 Y-25.381 E136.4538
G1 X-28.34 Y-26.229 E136.5033
G1 X-27.188 Y-27.568 E136.59143
G1 X-26.527 Y-28.126 E136.63458
G1 X-25.031 Y-29.031 E136.72181
G1 X-24.049 Y-29.414 E136.7744
G1 X-22.539 Y-29.752 E136.8516
G1 X-21.74 Y-29.813 E136.89158
G1 X21.5 Y-29.822 E139.04883
G1 X22.676 Y-29.731 E139.10767
G1 X24.33 Y-29.318 E139.19273
